X:1
T:How Shall I My Savior Set Forth?
T:How Shall I My Savior Set Forth?
T:John William McGarvey, Jr.  (1829-1911)
T:James Maxwell (1720-1800)
T:Public Domain Courtesy of the Cyber Hymnal™
T:Public Domain Courtesy of the Cyber Hymnal™
C:John William McGarvey, Jr.  (1829-1911)
Z:Public Domain
Z:Courtesy of the Cyber Hymnal™
%%score ( 1 2 ) ( 3 4 )
L:1/8
Q:1/4=90
M:6/8
K:G
V:1 treble 
V:2 treble 
V:3 bass 
V:4 bass 
V:1
 D | [DB]>[Dc][DB] [DA]>[DB][DA] | ([DG]3 [B,D]2) [DG] | [GB]>[FA][GB] [Gd]>[Fc][GB] | %4
w: 1.~How|shall I my Sav- ior set|forth? * How|shall I His beau- ties de-|
w: 2.~Tho’|once He was nailed to the|cross, * Vile|re- bels like me to set|
w: 3.~O|sin- ners! be- lieve and a-|dore * This|Sav- ior, so rich to re-|
w: 4.~Come,|all ye who see your- selves|lost, * And|feel your- selves bur- dened with|
 [FA]3- [FA]2 D | [GB]>[FA][GB] [Bd]>[Ac][GB] | ([E-A]3 [CE]2) [Ec] | [DB]>[DA][DG] [DA][DE][DF] | %8
w: clare? * Or|how shall I speak of His|worth, * Or|what His chief dig- ni- ties|
w: free, * His|glo- ry sus- tain- èd no|loss, * E-|ter- nal His king- dom shall|
w: deem; * No|crea- ture can ev- er ex-|plore * The|trea- sure of good- ness in|
w: sin, * Draw|near while with ter- ror you’re|tossed, * O-|bey, and your peace shall be-|
 [DG]3- [DG]2 ||"^Refrain" D | [FA]4 [FB][DA] | [D-G]3 =D2 D | [Ac]4 [Bd][ce] | [B-d]3 [GB]2 [GB] | %14
w: are? *||||||
w: be. *|O|won- der- ful|love! * O|won- der- ful|love! O won-|
w: Him. *||||||
w: gin. *||||||
 [Bd]3- [Bd]>[Ac][GB] | [EA]>[E^G][EA] !fermata![Ac]2 [EA] | (GF)[DG] [FB]2 [FA] | G3- G4 |] %18
w: ||||
w: der- * ful, won-|der- ful love, My Sav-|ior * showed to me.||
w: ||||
w: ||||
V:2
 D | x6 | x6 | x6 | x5 D | x6 | x6 | x6 | x5 || D | x6 | x3 =D2 D | x6 | x6 | x6 | x6 | D2 x4 | %17
 G3- G4 |] %18
V:3
 D, | G,>[G,A,][G,B,] [G,C]>[G,D][G,C] | ([G,-B,]3 =G,2) [G,B,] | %3
w: ~|~ ~ ~ ~ ~ ~|~ * ~|
 [G,D]>[G,D][G,D] [B,D]>[A,D][G,D] | [D,D]3- [D,D]2 [D,D] | [G,D]>[G,D][G,D] [G,,D]>[A,,D][B,,D] | %6
w: ~ ~ ~ ~ ~ ~|~ * ~|~ ~ ~ ~ ~ ~|
 ([C,-C]3 [C,G,]2) [C,G,] | [D,G,]>[D,A,][D,B,] [D,C][D,C][D,C] | [G,,B,]3- [G,,B,]2 || [G,B,] | %10
w: ~ * ~|~ ~ ~ ~ ~ ~|~ *|O|
 [D,C]>[D,C][D,C] (CD)[D,C] | [G,B,]>[G,B,][G,B,] [G,B,]2 z | [D,D]>[D,D][D,D] [D,D]2 [D,D] | %13
w: won- der- ful love! * O|won- der- ful love!|Won- der- ful love O|
 [G,D]>[G,D][G,D] [G,D]2 z | [G,D]>[G,D][G,D] [G,D]>[G,D][G,D] | %15
w: won- der- ful love!|Won- der- ful, won- der- ful,|
 [C,C]>[C,B,][C,C] !fermata![A,,E]2 [A,,C] | (B,A,)[D,B,] [D,D]2 [D,C] | [G,,B,]3- [G,,B,]4 |] %18
w: won- der- ful love, *|||
V:4
 D, | G,3/2 x9/2 | x3 =G,2 x | x6 | x6 | x6 | x6 | x6 | x5 || x | x3 D,2 x | x6 | x6 | x6 | x6 | %15
 x6 | D,2 x4 | x7 |] %18

